X:10
T:Be quick for I'm in haste - forgot - Parsons
%%VWML:SBG-1-2-567-0
F:http://www.vwml.org/record/SBG/1/2/567
Z:Original Sibelius transcriptions by M. & S. Graebe
M:6/8
I:linebreak $
K:Bb
V:1 treble nm="P1"
V:1
 G | G2 A B2 c | d2 d d2 e | G2 A d2 B | G3 z2 G | ^F2 =E D2 E | ^F2 G A2 _B |$ A2 G B2 A | %8
 (d3 d2) d | e2 d c2 =B | ^c2 d d2 d | GA B AG ^F | d3 z2 d |$ _e2 d c2 B | A2 G d2 d | c2 B A2 G | %16
 (G3 G2) d | d2 c B2 A | (G3 G2) z | %19
T:Be quick for I'm in haste - Olver
F:http://www.vwml.org/record/SBG/1/2/567
Z:Original Sibelius transcriptions by M. & S. Graebe
M:6/8
I:linebreak $
K:G
V:1 treble nm="P1"
V:1
 d | (de) d B2 g | d2 B G2 B | A2 B c2 A | (G3{/AG} F2) d | (de)d B2 g |$ d2 B G2 B | A2 d e2 f | %8
 d3 z2 d | d3/2 c/ d B2 e | c2 A d2 B | B2 d e2 a |$ (!fermata!g3 !fermata!f2) d | %13
 g2 B !fermata!c2 e | d2 F !fermata!G2 ^G | AB A d2 F | G3 z2 d | (de) d B2 g |$ d3 c2 =f | %19
 (e=f) e c2 g | (e3 c2) f | g2 d !fermata!d2 d | B2 G G2 ^G | (AB) A"^ral." d2 F | G3 z2 x | %25
T:Be quick for I'm in haste - Fone
F:http://www.vwml.org/record/SBG/1/2/567
Z:Original Sibelius transcriptions by M. & S. Graebe
M:6/8
I:linebreak $
K:C
V:1 treble nm="P1"
V:1
 G | G2 E c2 A | G2 E C2 C | F2 A GcB | (c3 c2) G | G E2 cBA |$ G2 C C2 E | FGA GcB | (c3 c2) G | %9
 GFE F2 D | F2 E F2 F/F/ |$ E2 G e2 d | c3{/dc} B2 (3G/A/B/ | cBc E2 F | G2 E C2 E | FGA G2 B | %16
 c6 | %17

